X: 1551
T:Bag of Halibut, The
M:6/8
L:1/8
C:Chris Corrigan
R:Jig
K:G
c|BAG E2 F|G2 A B3|BcB BAG|E3 G2 B|efg a2 e|
b2 a gfe|ede f2 d|B3 B2:||: d|ecA ecA|dBG dBG|
cBA GFD|E2 F G2 A|ecA ecA| dBG dBG|Bdg bag|e3 e2:||
